img/loading.svg

<?xml version="1.0" encoding="utf-8"?>
<!-- Generator: Adobe Illustrator 24.3.0, SVG Export Plug-In . SVG Version: 6.00 Build 0)  -->
<svg version="1.1" id="Layer_1" xmlns="http://www.w3.org/2000/svg" xmlns:xlink="http://www.w3.org/1999/xlink" x="0px" y="0px"
	 viewBox="0 0 512 512" style="enable-background:new 0 0 512 512;" xml:space="preserve">
<style type="text/css">
	.st0{opacity:0.4;fill:#5522FD;enable-background:new    ;}
	.st1{fill:#5522FD;}
</style>
<path class="st0" d="M456.7,370.7l-27.8-15.9c-6.7-3.9-9.6-12-6.9-19.2c-44,91.6-153.9,130.3-245.5,86.3S46.2,268,90.1,176.4
	C120.8,112.6,185.2,72,256,72c5.9,0,11.7,0.3,17.5,0.8c-0.7-0.1-1.5-0.2-2.2-0.2c-8.5-0.7-15.2-7.3-15.2-15.8v-32
	c0-8.6,6.8-15.6,15.3-16C266.2,8.5,261.2,8,256,8C119,8,8,119,8,256s111,248,248,248c98,0,182.4-57,222.7-139.4
	C474.6,372.4,464.5,375.1,456.7,370.7L456.7,370.7z"/>
<path class="st1" d="M271.2,72.6c-8.5-0.7-15.2-7.3-15.2-15.8V24.7c0-9.1,7.7-16.8,16.8-16.2C401.9,17.2,504,124.7,504,256
	c0,37.5-8.5,74.5-25,108.2c-4,8.2-14.4,11-22.3,6.5l-27.8-15.9c-7.4-4.2-9.8-13.4-6.2-21.1c11.4-24.3,17.3-50.9,17.3-77.7
	C440,159.5,365.7,80.4,271.2,72.6L271.2,72.6z"/>
</svg>

<svg width="512" height="512" viewBox="0 0 512 512" fill="none" xmlns="http://www.w3.org/2000/svg">
<path opacity="0.35" d="M456.7 370.7L428.9 354.8C422.2 350.9 419.3 342.8 422 335.6C378 427.2 268.1 465.9 176.5 421.9C84.9 377.9 46.2 268 90.1 176.4C120.8 112.6 185.2 72 256 72C261.9 72 267.7 72.3 273.5 72.8C272.8 72.7 272 72.6 271.3 72.6C262.8 71.9 256.1 65.3 256.1 56.8V24.8C256.1 16.2 262.9 9.2 271.4 8.8C266.2 8.5 261.2 8 256 8C119 8 8 119 8 256C8 393 119 504 256 504C354 504 438.4 447 478.7 364.6C474.6 372.4 464.5 375.1 456.7 370.7Z" fill="#0D0D0D"/>
<path d="M271.2 72.6C262.7 71.9 256 65.3 256 56.8V24.7C256 15.6 263.7 7.90003 272.8 8.50003C401.9 17.2 504 124.7 504 256C504 293.5 495.5 330.5 479 364.2C475 372.4 464.6 375.2 456.7 370.7L428.9 354.8C421.5 350.6 419.1 341.4 422.7 333.7C434.1 309.4 440 282.8 440 256C440 159.5 365.7 80.4 271.2 72.6Z" fill="#0D0D0D"/>
</svg>
